X:87
T:Reel 87
M:4/4
K:Gmaj
L:1/8
G2DB, G,B,DB,|CB,A,B, CDEF|G2DB, G,B,DF| (3gfg dc BGAB|GGDB, G,B,DB,|CB,A,B, CDEF|GFGA  (3Bcd eg| (3gfg dc BGG2| (3gfg dB egdB|GBdG  (3BcA AB|cBAc BGGB|AFDB ABcA| (3Bcd gB  (3Bcd gd| (3Bcd ef gfga|gfgf gfed| (3efg  (3fga gedc|
